optimized/24/outline/nps.svg

<svg viewBox="0 0 24 24" xmlns="http://www.w3.org/2000/svg" fill="currentColor" data-slot="icon">
  <g clip-path="url(#clip0_2117_12148)">
    <path d="M11.4533 2.5C11.16 2.5 10.894 2.67267 10.7733 2.94131L7.3092 10.3999H4.96455C4.31473 10.3999 3.68916 10.6552 3.22609 11.1133C2.76261 11.5718 2.5 12.1962 2.5 12.8499L2.5 19.0499C2.5 19.7036 2.76261 20.328 3.22609 20.7865C3.68916 21.2446 4.31473 21.4999 4.96455 21.4999H17.8266C18.416 21.5054 18.9893 21.3007 19.4414 20.9206C19.8948 20.5393 20.196 20.0065 20.2861 19.4193L21.4716 11.5204L21.4718 11.5192C21.526 11.1663 21.5019 10.8061 21.4014 10.4636C21.3009 10.1212 21.1266 9.80533 20.8913 9.5377C20.6561 9.2701 20.3656 9.05714 20.0405 8.9128C19.7169 8.76909 19.3661 8.69661 19.0122 8.69993H14.5516L14.7771 5.79996C14.7771 4.92085 14.4239 4.08022 13.7993 3.46231C13.1751 2.84481 12.331 2.5 11.4533 2.5ZM11.8397 4.20691C11.8802 4.11978 11.9774 4.07266 12.0681 4.10443C12.3239 4.19404 12.5583 4.33918 12.7526 4.53142C13.0948 4.86994 13.2848 5.32649 13.2848 5.79997L13.0594 9.44992C13.0594 9.86414 13.3934 10.1999 13.8055 10.1999L19.016 10.2L19.0243 10.1999C19.1671 10.1983 19.3082 10.2274 19.4376 10.2849C19.5671 10.3424 19.6814 10.4266 19.7731 10.5309C19.8647 10.6352 19.9317 10.7571 19.9701 10.888C20.0085 11.0188 20.0176 11.1562 19.997 11.2906L18.8115 19.1895L18.8113 19.1907C18.7771 19.4141 18.662 19.6203 18.4839 19.77C18.3056 19.92 18.0764 20.0026 17.8386 19.9999H8.53702V11.3114L11.8397 4.20691ZM7.04481 11.8999V19.9999H4.96455C4.70285 19.9999 4.45423 19.8969 4.27277 19.7174C4.09171 19.5383 3.99221 19.298 3.99221 19.0499V12.8499C3.99221 12.6018 4.09171 12.3615 4.27277 12.1824C4.45423 12.0029 4.70285 11.8999 4.96455 11.8999H7.04481Z"/>
  </g>
  <defs>
    <clipPath id="clip0_2117_12148">
      <rect width="24" height="24"/>
    </clipPath>
  </defs>
</svg>

<svg xmlns="http://www.w3.org/2000/svg" viewBox="0 0 24 24" fill="currentColor" data-slot="icon">
  <g clip-path="url(#a)">
    <path d="M11.453 2.5a.746.746 0 0 0-.68.441L7.31 10.4H4.965c-.65 0-1.276.255-1.739.713A2.443 2.443 0 0 0 2.5 12.85v6.2c0 .654.263 1.278.726 1.736a2.472 2.472 0 0 0 1.739.714h12.862c.589.005 1.162-.2 1.614-.58.454-.38.755-.914.845-1.5l1.186-7.9a2.435 2.435 0 0 0-.58-1.982 2.463 2.463 0 0 0-1.88-.838h-4.46l.225-2.9c0-.88-.353-1.72-.978-2.338a3.336 3.336 0 0 0-2.346-.962Zm.387 1.707a.186.186 0 0 1 .228-.103c.256.09.49.235.685.427.342.339.532.795.532 1.269l-.226 3.65c0 .414.334.75.747.75h5.218a.99.99 0 0 1 .75.33.944.944 0 0 1 .223.76l-1.186 7.9a.944.944 0 0 1-.327.58.986.986 0 0 1-.645.23H8.537V11.31l3.303-7.104ZM7.045 11.9V20h-2.08a.984.984 0 0 1-.692-.283.939.939 0 0 1-.28-.667v-6.2c0-.248.099-.489.28-.668a.984.984 0 0 1 .692-.282h2.08Z"/>
  </g>
  <defs>
    <clipPath id="a">
      <rect width="24" height="24"/>
    </clipPath>
  </defs>
</svg>
